app/src/main/assets/symbols/money/bank.svg

<svg xmlns:dc="http://purl.org/dc/elements/1.1/" 
   xmlns:cc="http://creativecommons.org/ns#"
   xmlns:rdf="http://www.w3.org/1999/02/22-rdf-syntax-ns#" 
   xmlns:svg="http://www.w3.org/2000/svg" 
   xmlns="http://www.w3.org/2000/svg" 
   version="1.1" 
   width="16"
   height="16"
   viewBox="0 0 16 16" 
   id="svg2">  <metadata id="metadata8">
    <rdf:RDF>
      <cc:Work rdf:about="">
        <dc:format>image/svg+xml</dc:format>
        <dc:type rdf:resource="http://purl.org/dc/dcmitype/StillImage"/>
        <dc:title/>
      </cc:Work>
    </rdf:RDF>
  </metadata>
  <defs id="defs6"/>
  <rect width="16" height="16" x="0" y="0" id="canvas" style="fill:none;stroke:none;visibility:hidden"/>
  <path d="m 0,2 0,7 c 0,0.627119 0.423729,1 1,1 l 12,0 c 0.576271,0 1,-0.423729 1,-1 L 14,2 0,2 z m 3,1 8,0 c 0,1 1,2 2,2 l 0,2 C 12,7 11,8 11,9 L 3,9 C 3,8 2,7 1,7 L 1,5 C 2,5 3,4 3,3 z M 7,4 C 5.343146,4 4,4.8954305 4,6 4,7.10457 5.343146,8 7,8 8.656855,8 10,7.10457 10,6 10,4.8954305 8.656855,4 7,4 z M 0,10.5 C 0,11.626577 0.448696,12 1,12 l 12,0 c 0.551304,0 1,-0.445333 1,-1.5 -0.288136,0.271186 -0.559322,0.5 -1,0.5 L 1,11 C 0.559322,11 0.271186,10.754237 0,10.5 z" id="bank" style="fill:#734a08;fill-opacity:1;stroke:none" transform="translate(1,1)"/>
</svg>

<?xml version="1.0" encoding="UTF-8"?>
<svg version="1.1" viewBox="0 0 16 16" xmlns="http://www.w3.org/2000/svg" xmlns:cc="http://creativecommons.org/ns#" xmlns:dc="http://purl.org/dc/elements/1.1/" xmlns:rdf="http://www.w3.org/1999/02/22-rdf-syntax-ns#">
<metadata>
<rdf:RDF>
<cc:Work rdf:about="">
<dc:format>image/svg+xml</dc:format>
<dc:type rdf:resource="http://purl.org/dc/dcmitype/StillImage"/>
<dc:title/>
</cc:Work>
</rdf:RDF>
</metadata>
<rect width="16" height="16" fill="none" visibility="hidden"/>
<path transform="translate(1,1)" d="m0 2v7c0 0.62712 0.42373 1 1 1h12c0.57627 0 1-0.42373 1-1v-7h-14zm3 1h8c0 1 1 2 2 2v2c-1 0-2 1-2 2h-8c0-1-1-2-2-2v-2c1 0 2-1 2-2zm4 1c-1.6569 0-3 0.89543-3 2 0 1.1046 1.3431 2 3 2 1.6569 0 3-0.89543 3-2 0-1.1046-1.3431-2-3-2zm-7 6.5c0 1.1266 0.4487 1.5 1 1.5h12c0.5513 0 1-0.44533 1-1.5-0.28814 0.27119-0.55932 0.5-1 0.5h-12c-0.44068 0-0.72881-0.24576-1-0.5z" fill="#734a08"/>
</svg>
